X: 5
T: Cameronian Reel
R: Reel
D: De Danann, Cherish The Ladies
M: C|
K: D
"D"A2 FA DAFA|"G"GFEF "A"GBdB|"D"A2 FA DAFA|"A"GBAG "D"FDDB |
"D"A2 FA DAFA|"G"G~E3 "A"GBdB|"D"A2 FA DAFA|"A"GBAG "D"FDDB:|
|:"D"Addc d2dA|"A"(3Bcd ef gfed|"A"(3cBA eA fAeA|"A"cdef gfeg|
  "D"faeg faeg|"D"fddc defg|"D"afge fdec|"A"dBAG "D"FDD2:|

